x-pack/solutions/observability/plugins/observability_onboarding/public/assets/apple_white.svg

<svg width="32" height="32" viewBox="0 0 32 32" fill="none" xmlns="http://www.w3.org/2000/svg">
<path d="M25.464 30.7199C23.7296 32.4031 21.816 32.1407 19.992 31.3471C18.0528 30.5375 16.28 30.4863 14.232 31.3471C11.6816 32.4479 10.328 32.1279 8.79202 30.7199C0.120037 21.792 1.40003 8.19199 11.256 7.67999C13.6464 7.80799 15.32 9.00159 16.728 9.10079C18.8208 8.67519 20.824 7.45599 23.064 7.61599C25.7552 7.83359 27.768 8.89599 29.112 10.8064C23.576 14.1344 24.888 21.4304 29.9728 23.4784C28.9552 26.1504 27.6496 28.7904 25.4608 30.7423L25.464 30.7199ZM16.536 7.58399C16.2768 3.616 19.4928 0.352005 23.192 0.0320053C23.7008 4.608 19.032 8.03199 16.536 7.58399Z" fill="white"/>
</svg>

<svg xmlns="http://www.w3.org/2000/svg" width="32" height="32" fill="none"><path fill="#fff" d="M25.464 30.72c-1.734 1.683-3.648 1.42-5.472.627-1.94-.81-3.712-.86-5.76 0-2.55 1.1-3.904.78-5.44-.627C.12 21.792 1.4 8.192 11.256 7.68c2.39.128 4.064 1.322 5.472 1.42 2.093-.425 4.096-1.644 6.336-1.484 2.691.218 4.704 1.28 6.048 3.19-5.536 3.328-4.224 10.624.86 12.672-1.017 2.672-2.322 5.312-4.511 7.264zM16.536 7.584c-.26-3.968 2.957-7.232 6.656-7.552.509 4.576-4.16 8-6.656 7.552"/></svg>
